Papirus/64x64/apps/redisinsight.svg

<?xml version="1.0" encoding="UTF-8" standalone="no"?>
<svg
   id="_图层_1"
   version="1.1"
   viewBox="0 0 64 64" width="64" height="64"
   sodipodi:docname="redisinsight.svg"
   xml:space="preserve"
   inkscape:version="1.4 (e7c3feb100, 2024-10-09)"
   xmlns:inkscape="http://www.inkscape.org/namespaces/inkscape"
   xmlns:sodipodi="http://sodipodi.sourceforge.net/DTD/sodipodi-0.dtd"
   xmlns:xlink="http://www.w3.org/1999/xlink"
   xmlns="http://www.w3.org/2000/svg"
   xmlns:svg="http://www.w3.org/2000/svg"><sodipodi:namedview
     id="namedview26"
     pagecolor="#505050"
     bordercolor="#eeeeee"
     borderopacity="1"
     inkscape:showpageshadow="0"
     inkscape:pageopacity="0"
     inkscape:pagecheckerboard="0"
     inkscape:deskcolor="#505050"
     inkscape:zoom="10.6875"
     inkscape:cx="32"
     inkscape:cy="32"
     inkscape:window-width="1920"
     inkscape:window-height="939"
     inkscape:window-x="0"
     inkscape:window-y="34"
     inkscape:window-maximized="1"
     inkscape:current-layer="_图层_1" /><!-- Generator: Adobe Illustrator 29.0.1, SVG Export Plug-In . SVG Version: 2.1.0 Build 192)  --><defs
     id="defs6"><style
       id="style1">
      .st0 {
        fill-opacity: .5;
      }

      .st0, .st1, .st2, .st3, .st4, .st5, .st6, .st7 {
        fill: #fff;
      }

      .st8 {
        fill: #133c9a;
      }

      .st2, .st9 {
        display: none;
      }

      .st3 {
        fill-opacity: .2;
      }

      .st4 {
        fill-opacity: .9;
      }

      .st10 {
        fill: #3370ff;
      }

      .st11 {
        fill: url(#_未命名的渐变_3);
      }

      .st12 {
        fill: url(#_未命名的渐变);
      }

      .st5 {
        fill-opacity: .3;
      }

      .st6 {
        fill-opacity: 0;
      }

      .st7 {
        fill-opacity: .7;
      }

      .st13 {
        fill: #00d6b9;
      }

      .st14 {
        fill: url(#_未命名的渐变_2);
      }
    </style><radialGradient
       id="_未命名的渐变"
       data-name="未命名的渐变"
       cx="123.9"
       cy="-40.2"
       fx="123.9"
       fy="-40.2"
       r="59.4"
       gradientTransform="translate(-26.8 25.5) scale(.6 -.7)"
       gradientUnits="userSpaceOnUse"><stop
         offset="0"
         stop-color="#db202e"
         id="stop1" /><stop
         offset="1"
         stop-color="#e01b24"
         id="stop2" /></radialGradient><radialGradient
       id="_未命名的渐变_2"
       data-name="未命名的渐变 2"
       cx="67.6"
       cy="26.8"
       fx="67.6"
       fy="26.8"
       r="105.2"
       gradientTransform="translate(-26.6 25.3) scale(.6 -.7)"
       gradientUnits="userSpaceOnUse"><stop
         offset="0"
         stop-color="#ffb648"
         id="stop3" /><stop
         offset="1"
         stop-color="#ff7800"
         stop-opacity="0"
         id="stop4" /></radialGradient><radialGradient
       id="_未命名的渐变_3"
       data-name="未命名的渐变 3"
       cx="61.7"
       cy="18.6"
       fx="61.7"
       fy="18.6"
       r="68"
       gradientTransform="translate(-26.8 25.8) scale(.6 -.7)"
       gradientUnits="userSpaceOnUse"><stop
         offset="0"
         stop-color="#c64600"
         id="stop5" /><stop
         offset="1"
         stop-color="#a51d2d"
         id="stop6" /></radialGradient><linearGradient
       id="linearGradient1261"><stop
         style="stop-color:#4f4f4f"
         offset="0"
         id="stop1-7" /><stop
         style="stop-color:#3f3f3f"
         offset="1"
         id="stop2-0" /></linearGradient><linearGradient
       id="linearGradient1263"
       x1="34.241"
       x2="37.169"
       y1="38.945"
       y2="30.342"
       gradientTransform="matrix(1.3919157,0,0,1.3888889,-1.321022,-0.4865665)"
       gradientUnits="userSpaceOnUse"
       xlink:href="#linearGradient1261" /></defs><path
     class="st1"
     d="M47.5,64.1H13.8c-7.6,0-13.8-6.3-13.8-13.8V13.7C0,6.2,6.2,0,13.7,0h36.6c7.5,0,13.7,6.2,13.7,13.7v36.6c0,7.5-6.2,13.7-13.7,13.7h-2.9.1Z"
     id="path6"
     style="fill:#f9f9f9;fill-opacity:1" /><g
     id="g26"
     transform="translate(0.37426901,-0.11403509)"><path
       style="opacity:0.2"
       d="m 60,25 h -6 l -2,3.43 v 24 L 60,49 Z M 50,17.484 44,17 42,20.914 v 35.8 l 8,-3.428 z M 4,41 v 8 l 28,12 8,-3.43 V 41 Z"
       id="path1" /><path
       style="fill:#a32321"
       d="m 4,40 v 8 L 32,60 40,56.57 32,40 Z"
       id="path2" /><path
       style="fill:#dc382d"
       d="M 32,30 4,40 32,52 40,32.856 Z"
       id="path3" /><path
       style="fill:#a32321"
       d="m 4,28 v 8 L 32,48 40,44.57 32,28 Z"
       id="path4" /><path
       style="fill:#dc382d"
       d="M 32,18 4,28 32,40 40,20.856 Z"
       id="path5" /><path
       style="fill:#a32321"
       d="m 4,16 v 8 L 32,36 40,32.57 32,16 Z"
       id="path6-3" /><path
       style="fill:#dc382d"
       d="M 32,6 4,16 32,28 40,8.8554 Z"
       id="path7" /><path
       style="fill:#a32321"
       d="M 32,60 V 11.735 L 40,8.8554 V 56.57 Z M 60,24 h -6 l -2,3.43 v 24 L 60,48 Z M 50,16.484 44,16 42,19.914 v 35.8 l 8,-3.428 z M 32,60 V 11.735 L 40,8.8554 V 56.57 Z"
       id="path8" /><path
       style="fill:#dc382d"
       d="M 52,21.144 V 27.43 L 60,24 Z m -2,-4.66 -8,-2.914 v 6.344 z"
       id="path9" /><path
       style="opacity:0.2;fill:#ffffff"
       d="M 32,6 4,16 5.2734,16.545 32,7 38.604,9.3574 40,8.8555 Z m 10,7.57 v 1 L 48.738,17.025 50,16.484 Z m 10,7.575 v 1 l 6.727,2.4 L 60,24 Z"
       id="path10" /></g></svg>

<svg xmlns="http://www.w3.org/2000/svg" width="64" height="64" version="1.1">
 <path style="opacity:0.2" d="M 60,25 H 54 L 52,28.43 V 52.43 L 60,49 Z M 50,17.484 44,17 42,20.914 V 56.714 L 50,53.286 Z M 4,41 V 49 L 32,61 40,57.57 V 41 Z"/>
 <path style="fill:#a32321" d="M 4,40 V 48 L 32,60 40,56.57 32,40 Z"/>
 <path style="fill:#dc382d" d="M 32,30 4,40 32,52 40,32.856 Z"/>
 <path style="fill:#a32321" d="M 4,28 V 36 L 32,48 40,44.57 32,28 Z"/>
 <path style="fill:#dc382d" d="M 32,18 4,28 32,40 40,20.856 Z"/>
 <path style="fill:#a32321" d="M 4,16 V 24 L 32,36 40,32.57 32,16 Z"/>
 <path style="fill:#dc382d" d="M 32,6 4,16 32,28 40,8.8554 Z"/>
 <path style="fill:#a32321" d="M 32,60 V 11.735 L 40,8.8554 V 56.57 Z M 60,24 H 54 L 52,27.43 V 51.43 L 60,48 Z M 50,16.484 44,16 42,19.914 V 55.714 L 50,52.286 Z M 32,60 V 11.735 L 40,8.8554 V 56.57 Z"/>
 <path style="fill:#dc382d" d="M 52,21.144 V 27.43 L 60,24 Z M 50,16.484 42,13.57 V 19.914 Z"/>
 <path style="opacity:0.2;fill:#ffffff" d="M 32 6 L 4 16 L 5.2734 16.545 L 32 7 L 38.604 9.3574 L 40 8.8555 L 32 6 z M 42 13.57 L 42 14.57 L 48.738 17.025 L 50 16.484 L 42 13.57 z M 52 21.145 L 52 22.145 L 58.727 24.545 L 60 24 L 52 21.145 z"/>
</svg>
